icons/1_Primary/Backblaze.svg

<svg width="1024" height="1024" viewBox="0 0 1024 1024" fill="none" xmlns="http://www.w3.org/2000/svg">
<g clip-path="url(#clip0_2_1557)">
<path d="M512 1024C794.77 1024 1024 794.77 1024 512C1024 229.23 794.77 0 512 0C229.23 0 0 229.23 0 512C0 794.77 229.23 1024 512 1024Z" fill="#FF837D"/>
<path d="M450.77 205.551C450.77 205.551 536.12 280.371 524.69 346.551C519.54 376.421 480.26 424.801 501.47 471.101C524.32 520.981 536.19 617.231 433.37 592.361C332 568.061 339.81 443.661 415.15 378.331C490.49 313.001 465.7 238.771 450.77 205.551ZM528.65 430.001C522.98 480.481 578.83 530.801 534.4 599.201C504 646.541 551 713.141 611.68 701.001C677.99 687.781 694.68 645.821 692.92 597.061C690.61 535.161 665.92 517.911 611.23 471.471C551.79 421.291 597.57 326.091 597.57 326.091C597.57 326.091 535.22 374.451 528.65 430.001ZM350.49 651.311C362.36 684.611 380.73 738.001 453.38 765.101C514.53 788.021 600.18 792.101 649.53 728.811C660.88 714.621 645.95 720.151 631.01 725.811C612.112 731.766 592.029 732.927 572.57 729.189C553.111 725.452 534.887 716.933 519.54 704.401C477.54 669.401 493.93 630.181 472.87 629.731C403.43 628.241 367.21 601.131 348.47 578.061C344.22 572.621 337.65 615.401 350.49 651.311Z" fill="white"/>
</g>
<defs>
<clipPath id="clip0_2_1557">
<rect width="1024" height="1024" fill="white"/>
</clipPath>
</defs>
</svg>

<svg xmlns="http://www.w3.org/2000/svg" width="1024" height="1024" fill="none">
   <g clip-path="url(#a)">
      <path fill="#FF837D" d="M512 1024c282.77 0 512-229.23 512-512S794.77 0 512 0 0 229.23 0 512s229.23 512 512 512Z"/>
      <path fill="#fff" d="M450.77 205.551s85.35 74.82 73.92 141c-5.15 29.87-44.43 78.25-23.22 124.55 22.85 49.88 34.72 146.13-68.1 121.26-101.37-24.3-93.56-148.7-18.22-214.03 75.34-65.33 50.55-139.56 35.62-172.78Zm77.88 224.45c-5.67 50.48 50.18 100.8 5.75 169.2-30.4 47.34 16.6 113.94 77.28 101.8 66.31-13.22 83-55.18 81.24-103.94-2.31-61.9-27-79.15-81.69-125.59-59.44-50.18-13.66-145.38-13.66-145.38s-62.35 48.36-68.92 103.91Zm-178.16 221.31c11.87 33.3 30.24 86.69 102.89 113.79 61.15 22.92 146.8 27 196.15-36.29 11.35-14.19-3.58-8.66-18.52-3a119.467 119.467 0 0 1-111.47-21.41c-42-35-25.61-74.22-46.67-74.67-69.44-1.49-105.66-28.6-124.4-51.67-4.25-5.44-10.82 37.34 2.02 73.25Z"/>
   </g>
   <defs>
      <clipPath id="a">
         <path fill="#fff" d="M0 0h1024v1024H0z"/>
      </clipPath>
   </defs>
</svg>
